X:409
T: Kehen zaoyangjun
N: C2027
O: China, Jiangsu Funing
S: III, 464]
R: Xiaodiao, Ershisizhi hua]
M: 2/4
L: 1/16
K: Bb
b2bcf3d | cdc4dc | b2d2cbg2 | f8
f2fgb3c | f2fdc3d | b3dcb2g | f8
f2fgb2bc | fgfdc3d | b2bdcbg2 | f2fdf3
g | b2bgfgb2 | g2b2d2cd | f2gbgfdc | B8
d2dcbcdf | c6cg | b2bgfgb2 | g2b2d2cd | f2gbgfdc | B8

